X:1
T:Rimsky-Korsakov Harmonic Exercises, Modulations (7)
T:Rimsky-Korsakov Harmonic Exercises, Modulations (7)
T:Realizations by S. Shchetnikov
T:"Practical Manual of Harmony" (1885)
C:Realizations by S. Shchetnikov
%%score { ( 1 2 ) | ( 3 4 ) }
L:1/8
Q:1/2=60
M:2/2
K:C
V:1 treble nm="Piano" snm="Pno."
V:2 treble 
V:3 bass 
V:4 bass 
V:1
"""_C:""^Example by Rimsky-Korsakov (C -- D♭ -- C):""^Modulation into the key of the second degree of kinship\nand return to the key (16 measures).\n" G4"" A4 | %1
"" B4"" c4 |"" d4"" c4 |"""" B8 |"""_C:""_f:""_{" c4 _B4 |"""_f:""_D♭:""_{" _A4"" A4 | %6
"" _A4"" _B4 |"" _B4"" _A4 |"""_D♭:" _d4"" c4 |"" _B4"""_D♭:""_f:""_{" _A4 | G8 | c4 _B4 | %12
"""_f:""_C:""_{" _A4"" G4 |"" G4"" c4 |"" A4"" B4 |"" c8 |] %16
"""^Exercise: own composition.\n\n\nRealization (C -- B -- C):\n\n\n""_C:" c4"" d4 |"" c4"" G4 | %18
"" A4"" B4 |"""""_C:""_e:""_{" c8 |"_e:" c4 B4 | e4 ^f4 |"""_e:""_B:""_{" g4"" ^c4 |"""" ^c8 | %24
"""_B:" B4"" ^c4 |"" ^c4"" B4 |"" B4"" ^A4 |"""_B:""_e:""_{" B8 |"""""_e:""_C:""_{" B8 |"""" c8 | %30
"" d4"" B4 |"" c8 |] %32
V:2
 E4 F4 | F4 E4 | D8 | D8 |"" C4"" G4 |"" F4 _G4 | F4 _G4 | _G8 | F8 |"" _D8 |"" F4"" E4 | %11
"" F4"" E4 |"" F8 | E4 G4 | A4 _A4 | G8 |] G8 | G8 | F8 |"" G8 |"""" ^F8 |"" G4"" B4 |"" B8 | ^A8 | %24
 ^F4 ^G4 | ^F8 | ^G4 ^F4 |"" ^F4"" A4 |"" G8 | G4 A4 | A4 G4 | G8 |] %32
V:3
 C8 | G,4 G,4 | A,4 _A,4 | G,8 | G,4 C4 | C8 | _D8 | _D4 C4 | _A,8 | _G,4 _A,4 | _B,4 C4 | C8 | %12
 C4 B,4 | C8 | C4 D4 | E8 |] E4 F4 | E4 C4 | C4 D4 | E8 | E4 ^D4 | B,4 ^D4 | E4 G4 | ^F4 E4 | %24
 ^D4 E4 | E4 ^D4 | ^C8 | ^D4 ^F4 | E4 F4 | E8 | F4 D4 | E8 |] %32
V:4
 C,4 F,4 | D,4 C,4 | F,8 | G,4 F,4 | E,8 | F,4 _E,4 | _D,4 _G,4 | _E,8 | _D,4 F,4 | _G,4 F,4 | %10
 _D,4 C,4 | _A,4 G,4 | F,4 D,4 | C,4 E,4 | F,8 | C,8 |] C,4 B,,4 | C,4 E,4 | F,4 D,4 | C,4 E,4 | %20
 A,4 B,4 | G,4 ^F,4 | E,8 | ^F,8 | B,,8 | ^A,,4 B,,4 | E,4 ^F,4 | B,,4 ^D,4 | E,4 D,4 | C,4 A,,4 | %30
 F,,4 G,,4 | C,8 |] %32

